X:9315
T:Lass of Ballintray
I:speed 250
S:Treoir, 1985; from Paddy Treacy
M:C
K:G
|: ~G3 B dGBd | edBG AGED | ~G3 B dGBd | gbag gedB |
~G3 B dGBd | edBG AGED | ~G3 B dGBd | gbag ef g2:|
dg ~g2 bg ~g2 | agbg ageg | dg ~g2 bg ~g2 | gbag ef g2 |
dg ~g2 bg ~g2 | agbg ageg | bgaf gfed | (3efg fa gedB :|


